X:1
T:New Bedford -- Reel
R:reel
B:Ryan's Mammoth Collection
N: 373
Z: Contributed by Ray Davies,  ray:davies99.freeserve.co.uk
M:2/4
L:1/16
K:D
u((3EFG)|\
A2FE DFAc | defa gedB | A2FE DFAF | GBAF [C2E2]((3EFG) |
A2FE DFAc | defa gefd | ecdB AFGA | BdcA D2:|
|:(fg)|\
{b}a^gaf dfaf | =gfge cefg | {b}a^gaf dfaf | edcB Aceg |
{b}a^gaf dfaf | =gfge cefg | afge fdec | dBAF D2 H:|
